X: 122
T: the Lily Bells Are Ringing
C: music: French Folksong.
C: words: Helen Goodrich.
Q: "Allegro moderato."
%R: air, march
B: "The Everyday Song Book", 1927
F: http://www.library.pitt.edu/happybirthday/pdf/The_Everyday_Song_Book.pdf
Z: 2017 John Chambers <jc:trillian.mit.edu>
M: 4/4
L: 1/8
K: Bb
% - - - - - - - - - - - - - - - - - - - - - - - - - - - - -
(Bc) | d2e2 c2d2 | B4 F2F2 | G2F2 G2A2 | B4 c2(Bc) | d2e2
w: 1.~The* Lil-y bells are ring-ing,   The birds their car-ols sing-ing, The* sun-beams
w: 2.~From* star-ry heav-en fleet-ing, She brings us joy-ous greet-ing,  Old* Win-ter
%
c2d2 | B4 F2F2 | G2F2G2A2 | B4 z2(AB) | c2d2 c2d2 | c4 z2(AB) |
w: news are bring-ing     That Spring is here a-gain. How* sweet-ly sound the bells! Each*
w: still de-feat-ing, \-\-Her song is ev-er new.      She* wears a crown of joy,    Of*
%
c2A2 f2d2 | c4 z2(Bc) | d2e2 c2d2 | B4 F2F2 | G2F2 G2A2 |
w: chime the tid-ings tells; How* swift-ly she's ad-vanc-ing! Each day her charms en-
w: love with-out al-loy;     The* rich and poor she bless-es, With lov-ing touch ca-
%
B4 c2(Bc) | d2e2 c2d2 | B4 F2F2 | G2F2 G2A2 | B4 z2 |]
w: hanc-ing; She* comes with songs and danc-ing, And lights up hill and glen.
w: ress-es;  The* world her sway con-fess-es,    And yields her hom-age true.
% - - - - - - - - - - - - - - - - - - - - - - - - - - - - -
